X: 754
T: Old Mountaineer
C:Bill Monroe, Arr. Mike Compton
B: jims roots
M:4/4
L:1/8
Q: 1/4=100
K:G
V:1 
%N:TablEdited by Mike Stangeland
%Q:486
|:"G"eggg g2 g2 | gabb gdde | "F"=f2 fa fdcA | "D"BABd "G"BG [G2G,2] |
eggg g2 g2 | gabb gdde | "F"=fefa fdc^A | "D"BBBd "G"BG [G2G,2] |
eggg g2 gf | gabb gdde | "F"=fffa fdc^A | "D"^ABBd "G"BG [G2G,2] |
eggg g2 gg | gabb gdde | "F"=fffa fdc^A | "D"^ABBd "G"BGDB,:|
|:"G"B,C^CD GF=F=C | "F"CCDE =FDEC | "G"B,C^CD GF=FD | "D"DFAd cAFD |
"G"B,C^CD GF=F=C | "F"CCDE =FD D2 | "G"gg=fa fdcA | "D"^ABBd "G"BG [G2G,2]:|
"G"[cD][dD][dD][dD] [d2D2] [d2D2] | [dD][cD][cD][dD] [c2D2] [d2D2] | [cD][dD][dD][dD] [d4D4] | [cD][dD][cD][dD] [cD]G G2 |
"G"[cD][dD][dD][dD] [d4D4] | [dD][AD][cD][AD] [c2D2] [d2D2] | [cD][dD][dD][dD] [d4D4] | [cD][dD][cD][dD] [cD]G [G2G,2] |
cddd d4 | dcBc ddgg | "G"g=faf "F"dcAA | "D"^ABdB "G"GD3|]
|:"G"[D2G,2] [DG,][DG,] [DG,][DG,][DG,]B | c4 Bd d2 | [D2G,2] [DG,][DG,] [DG,][DG,][DG,]B | cABd BG [G2G,2] |
V:cD 
V:dD 
[dD][dD] [d4D4] | dcBc ddgg | "G"gg=fa "F"fdcA | "D"A^AB"G"d BG [G2G,2] |
V:D2G,2 
V:[DG, 
[DG,] [DG,][DG,][DG,]B | ccBc dddg | "G"gg=fa "F"fdcA | "D"^ABBd "G"BG D2:|
% abcbook-tune_id 6298c2792d004d24f2c3619f


% abcbook-boost 0
% abcbook-tablature 
% abcbook-transpose 
% abcbook-lastupdated 1654178426057
% abcbook-soundfonts 
% abcbook-repeats 1


